projects/vfh1/img/icons/sch-swim.svg

<svg width="16" height="14" viewBox="0 0 16 14" fill="none" xmlns="http://www.w3.org/2000/svg">
<path d="M11.8507 6.80128C10.1677 4.79965 6.83314 4.80598 5.14559 6.7993C4.4637 7.57351 4.06826 8.55834 4.02538 9.58914C3.9825 10.6199 4.29477 11.6342 4.91 12.4624C5.0793 12.6871 5.29835 12.8695 5.54997 12.9953C5.8016 13.1211 6.07895 13.1869 6.36028 13.1875H10.6381C10.9194 13.1869 11.1968 13.1211 11.4484 12.9953C11.7 12.8695 11.9191 12.6871 12.0884 12.4624C12.704 11.6346 13.0164 10.6204 12.9731 9.5897C12.9298 8.55901 12.5336 7.57453 11.8507 6.80128ZM5.3934 8.76753C5.31581 8.93315 5.35243 9.2469 5.107 9.253C5.07675 9.25279 5.04693 9.24589 5.01967 9.23277C4.99241 9.21966 4.9684 9.20067 4.94936 9.17716C4.93033 9.15366 4.91674 9.12623 4.90957 9.09684C4.90241 9.06745 4.90185 9.03684 4.90793 9.00722C4.96446 8.81914 4.97424 8.43814 5.26137 8.51159C5.2869 8.51964 5.31059 8.53266 5.33106 8.54991C5.35154 8.56716 5.3684 8.58828 5.38067 8.61207C5.39294 8.63586 5.40039 8.66185 5.40257 8.68853C5.40476 8.71521 5.40164 8.74206 5.3934 8.76753ZM6.84575 6.95768C6.41913 7.20843 6.05515 7.55296 5.78137 7.96518C5.75097 8.00898 5.70461 8.03911 5.65225 8.04911C5.59988 8.05911 5.54568 8.04818 5.50128 8.01867C5.45688 7.98916 5.42582 7.94342 5.41477 7.89126C5.40372 7.83911 5.41355 7.7847 5.44217 7.73972C5.581 7.49279 6.67094 6.25147 6.91685 6.67939C6.94397 6.72581 6.95171 6.78104 6.9384 6.83313C6.92509 6.88521 6.89181 6.92996 6.84575 6.95768Z" fill="#42474D"/>
<path d="M5.07246 6.28328C5.46798 5.89452 5.92771 5.57703 6.43136 5.34484L6.19371 3.665C6.18719 3.61807 6.19085 3.5703 6.20443 3.52491C6.21801 3.47952 6.24119 3.43758 6.2724 3.40194C6.30361 3.3663 6.34212 3.33779 6.38532 3.31834C6.42852 3.29889 6.47539 3.28896 6.52277 3.28922H10.4756C10.5231 3.28903 10.5701 3.29908 10.6134 3.31869C10.6567 3.3383 10.6953 3.367 10.7265 3.40285C10.7578 3.43869 10.7809 3.48084 10.7944 3.52643C10.8079 3.57202 10.8114 3.61997 10.8046 3.66703L10.567 5.34484C11.07 5.57626 11.5291 5.89308 11.9239 6.28125L12.2671 3.87422C12.3034 3.61781 12.2841 3.35661 12.2107 3.10828C12.1373 2.85995 12.0114 2.63029 11.8415 2.43482C11.6717 2.23935 11.4618 2.08263 11.2262 1.97527C10.9905 1.86791 10.7345 1.8124 10.4756 1.8125H6.52277C6.2643 1.81396 6.00911 1.87052 5.77422 1.97839C5.53934 2.08627 5.33015 2.24298 5.16061 2.43809C4.99107 2.63319 4.86508 2.8622 4.79104 3.10985C4.717 3.35749 4.69661 3.61807 4.73123 3.87422L5.07246 6.28328Z" fill="#42474D"/>
</svg>

<svg width="16" height="14" fill="none" xmlns="http://www.w3.org/2000/svg"><path d="M11.85 6.801C10.169 4.8 6.834 4.806 5.147 6.8a4.504 4.504 0 00-.236 5.663 1.82 1.82 0 001.45.726h4.278a1.82 1.82 0 001.45-.726 4.498 4.498 0 00-.237-5.66zM5.394 8.768c-.077.165-.04.479-.286.485a.205.205 0 01-.2-.246c.057-.188.067-.569.354-.495a.203.203 0 01.132.256zm1.453-1.81c-.427.25-.79.595-1.065 1.007a.204.204 0 01-.339-.225c.139-.247 1.229-1.489 1.475-1.06a.204.204 0 01-.071.278z" fill="#42474D"/><path d="M5.072 6.283a4.813 4.813 0 011.36-.938l-.238-1.68a.33.33 0 01.329-.376h3.953a.33.33 0 01.329.378l-.238 1.678a4.79 4.79 0 011.357.936l.343-2.407a1.808 1.808 0 00-1.791-2.062H6.523A1.818 1.818 0 004.73 3.874l.341 2.41z" fill="#42474D"/></svg>
